X:1
T:Davids 23:e psalm
T:Alice Tegnér (1864-1943)
T:Davids 23:e psalm
T:©PA Aglert Edition may be freely distributed, duplicated, performed and recorded
T:©PA Aglert Edition may be freely distributed, duplicated, performed and recorded
T:©PA Aglert Edition may be freely distributed, duplicated, performed and recorded
T:©PA Aglert Edition may be freely distributed, duplicated, performed and recorded
C:Alice Tegnér (1864-1943)
Z:©PA Aglert
Z:Edition may be freely distributed, duplicated, performed and recorded
%%score [ 1 2 3 4 ]
L:1/8
Q:1/4=90
M:6/8
K:D
V:1 treble nm="S"
V:2 treble nm="A"
V:3 treble-8 nm="T"
V:4 bass nm="B"
V:1
"^Pastorale"!p! A2 G F2 E | (F>GA) B2 z | c2 c!<(! d2!<)! e |!>(! (A2 F)!>)! A2 z!mf! | d2 d c2 B | %5
w: Her- ren är min|her- * * de,|mig skall in- tet|fat- * tas,|han mig vi- la|
w: Mitt- för ond- skans|ö- * * gon|av ditt bord jag|mät- * tas,|nju- ter gläd- jens|
 A2 F D2 E |!>(! (F>E)!>)!D (F2 E) | E3- E2 z | A2 G F2 E | (F>GA) B3 | c2 c!<(! d2!<)! e | %11
w: lå- ter up- på|äng- * ar grö- *|na. _|Han mig ve- der-|kvick- * * er,|när min själ vill|
w: ol- ja, gå- vor|un- * der- ba- *|ra. _|Av din nåd och|god- * * het|da- gens bör- da|
 f3 c2 z | e2 d c2 B | A2!>(! F D2 G!>)! | (F>E)D E3 | D3 z2 z!fine! ||!p! F2 F F2 F | F2 F F2 F | %18
w: mat- tas,|vid de fris- ka|vat- ten, vid de|käl- * lor skö-|na,|Van- dra- de jag|ock- så ut- i|
w: lät- tas.|Hos min go- da|her- de vill jag|e- * vigt va-|ra.|||
 F2 F (F2!>(! E)!>)! | F3- F2 z | z2 z F2 F | G2!<(! A!<)! B2 B |!f! !>!e3 !>!d3 | %23
w: dö- dens da- *|lar, _|vis- ar|han mig vä- gen,|Jag ej|
w: |||||
!>(! d3!>)! c2 z |!p! B2 B B2 c | B3 A2 z |!pp! G2 G G2 A | G3 F2 z | E2 E ^E2 E | %29
w: rä- des.|Her- de- sta- ven|vin- kar,|her- de- stäm- man|ta- lar.|Ä- ven ut- i|
w: ||||||
 !>!F2 E (D!<(!F)F!<)! |!f! d3 ^G3 | B3!>(! A3!>)!!D.C.! |] %32
w: mörk- ret är _ min|Gud till-|stä- des.|
w: |||
V:2
!p! F2 E D2 C | D3 D2 z | G2 G!<(! G2!<)! G |!>(! (F2 D)!>)! F2 z!mf! | F2 F F2 G | D2 D D2 D | %6
w: Her- ren är min|her- de,|mig skall in- tet|fat- * tas,|han mig vi- la|lå- ter up- på|
w: Mitt- för ond- skans|ö- gon|av ditt bord jag|mät- * tas,|nju- ter gläd- jens|ol- ja, gå- vor|
!>(! D2!>)! D D3 | C3- C2 z | F2 E D2 C | D3 D3 | G2 G!<(! G2!<)! G | F3 F2 z | G2 F ^E2 E | %13
w: äng- ar grö-|na. _|Han mig ve- der-|kvick- er,|när min själ vill|mat- tas,|vid de fris- ka|
w: un- der- ba-|ra. _|Av din nåd och|god- het|da- gens bör- da|lät- tas.|Hos min go- da|
 F2!>(! D B,2!>)! D | (D>C)D C3 | D3 z2 z ||!p! F2 E D2 C | D2 C B,CD | C2 C (D2!>(! E)!>)! | %19
w: vat- ten, vid de|käl- * lor skö-|na,|Van- dra- de jag|ock- så ut- * i|dö- dens da- *|
w: her- de vill jag|e- * vigt va-|ra.||||
 C3- C2 z | z2 z ^D2 D | E2!<(! F!<)! G2 G |!f! G3 G3 |!>(! G3!>)! G2 z |!p! E2 E E2 E | D3 D2 z | %26
w: lar, _|vis- ar|han mig vä- gen,|Jag ej|rä- des.|Her- de- sta- ven|vin- kar,|
w: |||||||
!pp! D2 D E2 C | D3 D2 z | D2 D D2 D | !>!C2 C A,2!<(! E!<)! |!f! D3 E3 | ^G3!>(! (E2 =G)!>)! |] %32
w: her- de- stäm- man|ta- lar.|Ä- ven ut- i|mörk- ret är min|Gud till-|stä- des. _|
w: ||||||
V:3
!p! A2 A A2 A | (A2 F) G2 z | A2 A!<(! A2!<)! A |!>(! A3!>)! d2 z!mf! | B2 B c2 d | d2 A BF^G | %6
w: Her- ren är min|her- * de,|mig skall in- tet|fat- tas,|han mig vi- la|lå- ter up- * på|
w: Mitt- för ond- skans|ö- * gon|av ditt bord jag|mät- tas,|nju- ter gläd- jens|ol- ja, gå- * vor|
!>(! (A>!courtesy!=G)!>)!F (^G2 B) | (A2 E A2) z | A2 c d2 G | (A2 F) G3 | B2 B!<(! B2!<)! B | %11
w: äng- * ar grö- *|na. _ _|Han mig ve- der-|kvick- * er,|när min själ vill|
w: un- * der- ba- *|ra. _ _|Av din nåd och|god- * het|da- gens bör- da|
 B2 ^A A2 z | c2 d d2 d | d2!>(! A F2!>)! B | (A>G)F G3 | F3 z2 z || z2!p! c B2 ^A | %17
w: mat- * tas,|vid de fris- ka|vat- ten, vid de|käl- * lor skö-|na,|Van- dra jag|
w: lät- * tas.|Hos min go- da|her- de vill jag|e- * vigt va-|ra.||
 B2 !courtesy!=A G2 F | ^A2 A B3 |!>(! ^A3- A2 z!>)! | z2 z z2 B | B2!<(! B!<)! B2 B | %22
w: ock- så ut- i|dö- dens da-|lar, _|ja|han mig vä- gen,|
w: |||||
!f! A3 (B>cd) |!>(! e3!>)! e2 z |!p! c2 c c2 A | A3 A2 z |!pp! B2 B A2 A | D3 F2 z | ^G2 G G2 G | %29
w: Jag ej _ _|rä- des.|Her- de- sta- ven|vin- kar,|her- de- stäm- man|ta- lar.|Ä- ven ut- i|
w: |||||||
 !>!A2 !courtesy!=G (F!<(!A)^A!<)! |!f! B3 (B>cd) | d3!>(! c3!>)! |] %32
w: mörk- ret är _ min|Gud till- * *|stä- des.|
w: |||
V:4
!p! D,2 D, D,2 A, | D,3 G,2 z | E,2 E,!<(! D,2!<)! C, |!>(! D,3!>)! D,2 z!mf! | B,2 B, A,2 G, | %5
w: Her- ren är min|her- de,|mig skall in- tet|fat- tas,|han mig vi- la|
w: Mitt- för ond- skans|ö- gon|av ditt bord jag|mät- tas,|nju- ter gläd- jens|
 F,2 D, B,,2 _B,, |!>(! A,,2!>)! A,, (B,,2 ^G,,) | A,,3- A,,2 z | D,2 D, D,2 D, | D,3 (G,2 F,) | %10
w: lå- ter up- på|äng- ar grö- *|na. _|Han mig ve- der-|kvick- er, _|
w: ol- ja, gå- vor|un- der- ba- *|ra. _|Av din nåd och|god- het _|
 E,2 E,!<(! D,2!<)! D, | C,3 F,2 z | ^A,,2 B,, ^G,,2 G,, | A,,2!>(! A,, B,,2!>)! E,, | %14
w: när min själ vill|mat- tas,|vid de fris- ka|vat- ten, vid de|
w: da- gens bör- da|lät- tas.|Hos min go- da|her- de vill jag|
 A,,2 A,, A,,3 | D,3 z2 z || z6 | z2 z z2!p! F, | (E,>D,)C, (B,,2!>(! G,,)!>)! | F,,3- F,,2 z | %20
w: käl- lor skö-|na,||I|dö- * dens da- *|lar, _|
w: e- vigt va-|ra.|||||
 B,,2 B,, B,2 A, | G,2!<(! F,!<)! E,2 D, |!f! C,3 B,,3 |!>(! A,,3!>)! A,,2 z |!p! G,,2 G, G,2 G, | %25
w: vis- ar han, ja|han mig vä- gen,|Jag ej|rä- des.|Her- de- sta- ven|
w: |||||
 F,3 F,2 z |!pp! E,2 E, C,2 A,, | B,,3 B,,2 z | B,,2 B,, _B,,2 B,, | !>!A,,2 A,, D,2!<(! C,!<)! | %30
w: vin- kar,|her- de- stäm- man|ta- lar.|Ä- ven ut- i|mörk- ret är min|
w: |||||
!f! B,,3 E,3 | A,,3!>(! A,,3!>)! |] %32
w: Gud till-|stä- des.|
w: ||

